X: 3054
T: Beach, The
R: jig
M: 6/8
K: Fmajor
|:F2c|cAc cdc|A2G F2c|cAc f2e|dAG F2c|
cAc cdc|AGF B2A|GFE B2A|GFE:|
|:dcd e3|fcc dcc|dcd ede|f2a gfe|
dcd e3|fcc dcc|B2A GFE|B2A GFE:|

